X:1
T:Die schöne Müllerin (D.795)
T:Mein!
T:11. Mein!
T:Franz Schubert
T:Die schöne Müllerin (D.795) 
T:Friedrich Müller
T:OpenScore (CC0)
T:OpenScore (CC0)
T:OpenScore (CC0)
T:OpenScore (CC0)
C:Franz Schubert
Z:Wilhelm Müller
Z:OpenScore (CC0)
%%score 1 { ( 2 3 ) | ( 4 5 ) }
L:1/8
Q:1/4=168
M:2/2
K:D
V:1 treble nm="Singstimme"
V:2 treble nm="Pianoforte"
V:3 treble 
V:4 bass 
V:5 bass 
V:1
"^Mässing geschwind." z8 | z8 | z8 | z8 | z8 | z8 | z8 | z8 |!p! F2 DF A2 A2 | A2 GF E4 | %10
w: ||||||||Bäch- lein, * lass dein|Rau- schen * sein,|
 G2 EG B2 B2 | B2 AG F4 | B2 GB d2 d2 |!p!!<(! d2 =c B A4!<)! |!mf! B2 AG F4 | E2 B2 ^AB GE | %16
w: Rä- der, * stellt eu'r|Brau- sen * ein,|all' ihr * mun- tern|Wald- vö- ge- lein,|gross und * klein,|en- det eu- * re *|
 DF DF =A4- | A2 z2 z4 |[Q:1/4=150] E2 B2 ^AB GE | DF DF A4- | A2 z2 z4 |[Q:1/4=168] Ec Ac d4 | %22
w: Me- * lo- * dei'n,|_|en- det eu- * re _|Me- * lo- * dei'n!|_|Durch * den * Hain|
 Ec Ac d4 | cA ^GA E2 e2 | (d2{e)d} cB A4 |[Q:1/4=150] Ec Ac d4 | Ec Ac d4 | cA ^GA E2 e2 | %28
w: aus * und * ein,|schal- * le _ heut' ein|Reim al- * lein,|durch * den * Hain|aus * und * ein|schal- * le _ heut' ein|
 (d2{e)d} cB A4 |[Q:1/4=168] dA AF DF FA | dB BG E2 d2 | (f3 d) (c3 A) | d6 z2 |!mp! dA AF DF FA | %34
w: Reim al- * lein,|Die * ge- * lieb- * te _|Mül- * le- * rin ist|mein, _ ist _|mein,|die * ge- * lieb- * te _|
 dB BG E2 d2 | (f3 d) (c3 e) | d4 z4 | z4!mp![Q:1/4=155] (d4 | =f6 A2) | _B6 z2 | %40
w: Mül- * le- * rin ist|mein, _ ist _|mein,|mein,|_ _|mein.|
!mf! =F2 _B2 z2 B B | d3 d =c2 _B2 | A3 =c c2 z2 | A2 =c2 z2 c c | =c3 c _e2 dc | (_B2 d2) z4 | %46
w: Früh- ling, sind das|al- le dei- ne|Blü- me- lein?|Son- ne! hast du|kei- nen hel- ler'n *|Schein? *|
 d3 d =c2 _B2 | A3 _e d4 | _B3 B =cB A G | A3 _e (e2 d2) | (=c4 _d4- | d2) =c2 _B2 A2 | %52
w: Ach! so muss ich|ganz al- lein|mit dem se- * li- gen|Wor- te mein *|un- *|* ver- stan- den|
 _B2 =cd =f_e dc | _B6 =c2 |{=c} d4 z4 |!<(! (=c4 _d4- | d2)!<)!!f!!>(! =c2 _B2 A2 | %57
w: in der * wei- * ten *|Schöp- fung|sein,|un- *|* ver- stan- den|
!mp! _B2!>)!!mp! =cd =f_e dc |!<(! (!turn!_B4!<)!!f! d3)!mf! =c | _B4 z4 | z8 | z8 | z8 | %63
w: in der * wei- * ten *|Schöp- * fung|sein.||||
[Q:1/4=168] F2 DF A2 A2 | A2 GF E4 | G2 EG B2 B2 | B2 AG F4 | B2 GB d2 d2 | d2 =c B A4 | B2 AG F4 | %70
w: Bäch- lein, * lass dein|Rau- schen * sein,|Rä- der, * stellt eu'r|Brau- sen * ein,|all' ihr * mun- tern|Wald- vö- ge- lein,|gross und * klein,|
[Q:1/4=155] E2 B2 ^AB GE | DF DF =A4- | A2 z2 z4 |[Q:1/4=150] E2 B2 ^AB GE | DF DF =A4- | %75
w: en- det eu- * re *|Me- * lo- * dei'n,|_|en- det eu- * re _|Me- * lo- * dei'n!|
 A2 z2 z4 |!p![Q:1/4=168] Ec Ac d4 | Ec Ac d4 | cA ^GA E2 e2 | (d2{ed)} cB A4 | Ec Ac d4 | %81
w: _|Durch * den * Hain|aus * und * ein,|schal- * le _ heut' ein|Reim al- * lein,|durch * den * Hain|
 Ec Ac d4 | cA ^GA E2 e2 | (d2{ed)} cB A4 |[Q:1/4=175] dA AF DF FA | dB BG E2 d2 | (f3 d) (c3 A) | %87
w: aus * und * ein,|schal- * le _ heut' ein|Reim al- * lein:|Die * ge- * lieb- * te _|Mül- * le- * rin ist|mein, _ ist _|
 d4 z4 |!p! dA AF DF FA | dB BG E2 d2 | (f3 d) (c3 e) | d6 z2 |[Q:1/4=150] (f6 d2) | %93
w: mein,|die * ge- * lieb- * te _|Mül- * le- * rin ist|mein, _ ist _|mein,|mein, _|
 (c2 A2 (3G2 E2 A2) |[Q:1/4=168] !fermata!D4 z4 | z8 | z8 | z8 | z8 | z8 | z8 | z8 | z8 |] %103
w: ist _ _ _ _|mein.|||||||||
V:2
!>(! (F,FDF)!>)!!mp! [A,GA]2 [A,GA]2 |!mf!!>(! (F,FDF)!>)!!mp! [A,GA]2 [A,GA]2 | %2
!mf!!>(! (=CdFd)!>)!!mp! [B,GB]2 [B,GB]2 |!mf!!>(! (A,B^DB)!>)!!mp! [G,EG]2 [G,EG]2 | %4
!mf!!>(! (G,A[CE]!mp!A)!>)!!mf!!>(! (F,A[DF]!mp!A)!>)! | E2 C2 F,DA,F, | %6
!mf!!>(! G,A[CE]!mp!A!>)!!mf!!>(! F,A[DF]A!>)! |!mp! [G,E]B,[A,C]G, [F,D]2 z2 | F,DA,D G,EA,E | %9
 F,DA,D E,CA,C | G,EB,E A,FB,F | G,EB,E F,^DB,D | B,G=DG =CADA | B,BDB A,ADA | G,G^CG F,FDF | %15
 G,EB,E G,EB,E | F,DA,D G,CA,C | F,DA,D!mp!!<(! A,^DB,D!<)! |!mf!!>(! G,EB,E!>)!!mp! G,EB,E | %19
 F,DA,D G,CA,C | F,DA,D F,DA,D | E,ECE E,EB,E | E,ECE E,EB,E | E,ECE E,ECE | B,EDE CECA, | %25
 E,ECE E,EB,E | E,ECE E,EB,E | E,ECE E,ECE | B,EDE CECA, | F,DA,D F,DA,D | %30
 E,DB,D!mp!!<(! E,DB,D!<)! | F,DA,D G,CA,C |!f!!>(! F,DA,D F,DA,D!>)! | F,DA,D F,DA,D | %34
 E,DB,D!<(! E,DB,D!<)! | F,DA,D G,CA,C |!>(! F,DA,D F,DA,D!>)! |!<(! =F,DA,D F,DA,D!<)! | %38
!f!!>(! _E,=CA,C E,CA,C!>)! |[K:bass] D,_B,=F,B, D,B,F,B, | D,_B,=F,B, D,B,F,B, | %41
 D,_B,=F,B, D,B,F,B, | _E,A,_G,A, E,A,G,A, | _E,A,_G,A, E,A,G,A, | _E,A,_G,A, E,A,G,A, | %45
 D,_B,=F,B, D,B,F,B, | D,_B,G,B, D,B,G,B, | _E,=CA,C D,_B,G,B, | D,_B,G,B, D,B,G,B, | %49
 _E,=CA,C D,_B,G,B, |!mf!!<(! G,=C_B,C G,_DB,D!<)! |!f!!>(! ^F,=CA,C =F,CA,C!>)! | %52
!mf! =F,D_B,D _E,=CG,C | D,_B,=F,B, F,=CA,C | =F,D_B,D F,DB,D |!mf!!<(! G,=C_B,C G,_DB,D!<)! | %56
!f!!>(! ^F,=CA,C =F,CA,C!>)! |!p! =F,D_B,D _E,=CG,C | D,_B,=F,B, _E,A,F,A, | D,_B,=F,B, D,B,F,B, | %60
!<(! D,D[=F,^G,]D D,D[F,G,]D |[K:treble] =F,=F[A,D]F F,F[A,D]F | G,A[CE]A G,A[CE]A!<)! | %63
 ^F,DA,D G,EA,E | F,DA,D E,CA,C | G,EB,E A,FB,F | G,EB,E F,^DB,D | B,G=DG =CADA | %68
!<(! B,BDB A,ADA!<)! | G,G^CG F,FDF | G,EB,E G,EB,E | F,DA,D G,CA,C | F,DA,D!mf!!<(! A,^DB,D!<)! | %73
!f!!>(! G,EB,E!>)!!mf! G,EB,E | F,DA,D G,CA,C | F,DA,D F,DA,D | E,ECE E,EB,E | E,ECE E,EB,E | %78
 E,ECE E,ECE | B,EDE CECA, | E,ECE E,EB,E | E,ECE E,EB,E | E,ECE E,ECE | B,EDE CECA, | %84
 F,DA,D F,DA,D |!<(! E,DB,D!p! E,DB,D!<)! | F,DA,D G,CA,C | F,DA,D F,DA,D | F,DA,D F,DA,D | %89
!p!!<(! E,DB,D E,DB,D!<)! | F,DA,D G,CA,C | F,DA,D =F,DB,D | ^F,DA,D F,DA,D | G,CA,C G,CA,C | %94
 F,!mp!FDF [A,GA]2 [A,GA]2 | F,FDF [A,GA]2 [A,GA]2 |!mp!!>(! =CdFd!>)!!p! [B,GB]2 [B,GB]2 | %97
!mp!!>(! A,B^DB!>)!!p! [G,EG]2 [G,EG]2 |!mp!!>(! G,A[CE]A!>)!!p! F,A[DF]A | %99
 ([G,E]B,[A,C]G, F,DA,F,) | (G,A[CE]A F,A[DF]A) | ([G,E]B,[A,C]G, [F,D]2) z2 | [DFAd]4 z4 |] %103
V:3
 F,4 x4 | F,4 x4 | =C4 x4 | A,4 x4 | G,4 F,4 | G,B,A,G, x4 | G,4 F,4 | x8 | F,4 G,4 | F,4 E,4 | %10
 G,4 A,4 | G,4 F,4 | B,4 =C4 | B,4 A,4 | G,4 F,4 | G,4 G,4 | F,4 G,4 | F,4 A,4 | G,4 G,4 | %19
 F,4 G,4 | F,4 F,4 | E,4 E,4 | E,4 E,4 | E,4 E,4 | E,4 E,4 | E,4 E,4 | E,4 E,4 | E,4 E,4 | E,8 | %29
 F,4 F,4 | E,4 E,4 | F,4 G,4 | F,4 F,4 | F,4 F,4 | E,4 E,4 | F,4 G,4 | F,4 F,4 | =F,4 F,4 | x8 | %39
[K:bass] x8 | x8 | x8 | x8 | x8 | x8 | x8 | D,4 D,4 | x8 | D,4 D,4 | _E,4 D,4 | G,4 G,4 | %51
 F,4 =F,4 | =F,4 _E,4 | D,4 =F,4 | =F,4 F,4 | G,4 G,4 | F,4 =F,4 | =F,4 _E,4 | D,4 _E,4 | x8 | x8 | %61
[K:treble] =F,4 F,4 | G,4 G,4 | F,4 G,4 | F,4 E,4 | G,4 A,4 | G,4 F,4 | B,4 =C4 | B,4 A,4 | %69
 G,4 F,4 | G,4 G,4 | F,4 G,4 | F,4 A,4 | G,4 G,4 | F,4 G,4 | F,4 F,4 | E,4 E,4 | E,4 E,4 | %78
 E,4 E,4 | E,4 E,4 | E,4 E,4 | E,4 E,4 | E,4 E,4 | E,8 | F,4 F,4 | E,4 E,4 | F,4 G,4 | F,4 F,4 | %88
 x8 | E,4 E,4 | F,4 G,4 | x8 | x8 | x8 | F,4 x4 | F,4 x4 | =C4 x4 | A,4 x4 | G,4 F,4 | x8 | %100
 G,4 F,4 | x8 | x8 |] %103
V:4
!mf! (D,,D,A,,D,) (C,,E,A,,E,) | (D,,D,A,,D,) (C,,E,A,,E,) | (D,,A,D,A,) (G,,G,D,G,) | %3
 (B,,,F,B,,F,) (E,,E,B,,E,) | (A,,,2 A,,2 D,,2 A,,2) | (A,,,2 A,,2 D,,2 A,,2) | %6
 (A,,,2 A,,2 D,,2 A,,2) | (A,,,2 A,,2 D,,2) z2 |!pp! (D,,2 A,,2 C,,2 A,,2) | D,,2 A,,2 A,,,2 A,,2 | %10
 E,,2 B,,2 ^D,,2 B,,2 | E,,2 B,,2 B,,,2 B,,2 | G,,2 D,2 F,,2 D,2 |"_cresc." G,,2 D,2 F,,2 D,2 | %14
!mp! E,,2 A,,2 D,,2 A,,2 | (G,,,2 G,,2 G,,,2 G,,2) | (A,,,2 A,,2 A,,,2 A,,2) | %17
 (D,,2 A,,2 F,,,2 F,,2) | (G,,,2 G,,2 G,,,2 G,,2) | (A,,,2 A,,2 A,,,2 A,,2) | %20
 (D,,2 A,,2 D,,2 A,,2) | (A,,,2 E,,2) (^G,,,2 E,,2) | (A,,,2 E,,2) (^G,,,2 E,,2) | %23
 (A,,,2 E,,2) (A,,,2 E,,2) | E,,2 ^G,,2 A,,2 A,,,2 | (A,,,2 E,,2) (^G,,,2 E,,2) | %26
 (A,,,2 E,,2) (^G,,,2 E,,2) | (A,,,2 E,,2) (A,,,2 E,,2) | E,,2 E,,2 A,,,2 A,,2 | %29
 D,,2 F,,2 D,,2 F,,2 | G,,,2 G,,2 G,,,2 G,,2 |!f! A,,,2 A,,2 A,,,2 A,,2 | D,,2 A,,2 D,,2 A,,2 | %33
!p! F,,,2 F,,2 F,,,2 F,,2 | G,,,2 G,,2 G,,,2 G,,2 |!f! A,,,2 A,,2 A,,,2 A,,2 | %36
 D,,2 A,,2 D,,2 A,,2 |!p! D,,2 A,,2 D,,2 A,,2 | (=F,,,2 =F,,2) (F,,,2 F,,2) | %39
!p! (_B,,,2 =F,,2) (B,,,2 F,,2) |!mf! (_B,,,2 =F,,2) (B,,,2 F,,2) | (_B,,,2 =F,,2) ((B,,,2 F,,2)) | %42
 ((_B,,,2 _G,,2)) ((B,,,2 G,,2)) | ((_B,,,2 _G,,2)) ((B,,,2 G,,2)) | (_B,,,2 _G,,2) (B,,,2 G,,2) | %45
 (_B,,,2 =F,,2) (B,,,2 F,,2) | (G,,,2 D,,2) (G,,,2 D,,2) | (^F,,,2 _E,,2) (G,,,2 D,,2) | %48
 (G,,,2 D,,2) (G,,,2 D,,2) | (^F,,,2 _E,,2) (G,,,2 D,,2) | (=E,,2 =E,2 E,,2 E,2) | %51
 (_E,,2 _E,2 E,,2 E,2) | (D,,2 D,,2 _E,,2 E,,2) | (=F,,,2 =F,,2 F,,,2 F,,2) | %54
 (_B,,,2 =F,,2 B,,,2 F,,2) | (=E,,2 =E,2 E,,2 E,2) | (_E,,2 _E,2 E,,2 E,2) | %57
 (D,,2 D,,2 _E,,2 E,,2) | (=F,,,2 =F,,2 F,,,2 F,,2) | (_B,,,2 =F,,2 B,,,2 F,,2) | %60
 (_B,,,2 _B,,2 B,,,2 B,,2) | (A,,,2 A,,2 A,,,2 A,,2) | (A,,,2 A,,2 A,,,2 A,,2) | %63
!p! (D,,2 A,,2 C,,2 A,,2) | D,,2 A,,2 A,,,2 A,,2 | E,,2 B,,2 ^D,,2 B,,2 | E,,2 B,,2 B,,,2 B,,2 | %67
 G,,2 D,2 F,,2 D,2 |!mp! G,,2 D,2 F,,2 D,2 |!mf! E,,2 A,,2 D,,2 A,,2 | G,,,2 G,,2 G,,,2 G,,2 | %71
 A,,,2 A,,2 A,,,2 A,,2 | D,,2 A,,2 F,,,2 F,,2 | G,,,2 G,,2 G,,,2 G,,2 | A,,,2 A,,2 A,,,2 A,,2 | %75
 D,,2 A,,2 D,,2 A,,2 |!p! A,,,2 E,,2 ^G,,,2 E,,2 | A,,,2 E,,2 ^G,,,2 E,,2 | %78
 (A,,,2 E,,2) (A,,,2 E,,2) | E,,2 ^G,,2 A,,2 A,,,2 | (A,,,2 E,,2) (^G,,,2 E,,2) | %81
 (A,,,2 E,,2) (^G,,,2 E,,2) | (A,,,2 E,,2) (A,,,2 E,,2) | E,,2 E,,2 A,,,2 A,,2 | %84
 (F,,,2 F,,2 F,,,2 F,,2) | G,,,2 G,,2 G,,,2 G,,2 |!ff! A,,,2 A,,2 A,,,2 A,,2 | %87
 D,,2 A,,2 D,,2 A,,2 |!p! F,,,2 F,,2 F,,,2 F,,2 | G,,,2 G,,2 G,,,2 G,,2 | %90
!ff! A,,,2 A,,2 A,,,2 A,,2 | D,,2 A,,2 ^G,,,2 ^G,,2 | A,,,2 A,,2 A,,,2 A,,2 | %93
 A,,,2 A,,2 A,,,2 A,,2 | D,,D,A,,D, C,,E,A,,E, | D,,D,A,,D, C,,E,A,,E, | D,,A,D,A, G,,G,D,G, | %97
 B,,,F,B,,F, E,,E,B,,E, | (A,,,2 A,,2) (D,,2 A,,2) | (A,,,2 A,,2) (D,,2 A,,2) | %100
 (A,,,2 A,,2) (D,,2 A,,2) | (A,,,2 A,,2 D,,2) z2 |!ff! [D,,F,,A,,D,]4 z4 |] %103
V:5
 D,,4 C,,4 | D,,4 C,,4 | D,,4 G,,4 | B,,,4 E,,4 | x8 | x8 | x8 | x8 | D,,4 C,,4 | D,,4 A,,,4 | %10
 E,,4 ^D,,4 | E,,4 B,,,4 | G,,4 F,,4 | G,,4 F,,4 | E,,4 D,,4 | x8 | x8 | x8 | x8 | x8 | x8 | %21
 A,,,4 ^G,,,4 | A,,,4 ^G,,,4 | A,,,4 A,,,4 | x8 | A,,,4 ^G,,,4 | A,,,4 ^G,,,4 | A,,,4 A,,,4 | %28
 z4 A,,,4 | x8 | x8 | x8 | x8 | x8 | x8 | x8 | x8 | x8 | x8 | _B,,,4 B,,,4 | _B,,,4 B,,,4 | %41
 _B,,,4 B,,,4 | _B,,,4 B,,,4 | _B,,,4 B,,,4 | _B,,,4 B,,,4 | _B,,,4 B,,,4 | G,,,4 G,,,4 | %47
 F,,,4 G,,,4 | G,,,4 G,,,4 | F,,,4 G,,,4 | x8 | x8 | x8 | x8 | x8 | x8 | x8 | x8 | x8 | x8 | x8 | %61
 x8 | x8 | x8 | x8 | x8 | x8 | x8 | x8 | x8 | x8 | x8 | x8 | x8 | x8 | x8 | x8 | x8 | A,,,4 A,,,4 | %79
 x8 | A,,,4 ^G,,,4 | A,,,4 ^G,,,4 | A,,,4 A,,,4 | x8 | x8 | x8 | x8 | x8 | x8 | x8 | x8 | x8 | x8 | %93
 x8 | D,,4 C,,4 | D,,4 C,,4 | D,,4 G,,4 | B,,,4 E,,4 | x8 | x8 | x8 | x8 | x8 |] %103

